icons/shield40_ca_nb_tertiary.svg

<svg width="22" height="20" xml:space="preserve" style="overflow:visible" xmlns="http://www.w3.org/2000/svg">
 <path d="M 18.697477,13.445771 18.341303,8.5925551 17.725508,8.1994093 18.452171,6.383079 17.2656,6.5428605 17.738325,5.8436327 17.977373,4.2958485 18.303144,4.0186403 17.528492,3.2183443 H 15.999481 L 14.127989,4.3810713 14.620664,2.9942155 13.938106,1.8595273 12.888077,2.093807 12.375713,1.5814437 12.609692,0.99994443 8.2692795,1.8703375 7.5,1.4670808 V 1 L 3.998648,1.014643 4,2 H 3 V 3.5 L 1.56333,4.5004539 H 1 V 5 H 1.7245602 L 2.641724,4.620427 3,5.5 v 9.712991 l -0.5323234,0.539194 1.3613825,0.969867 0.05986,1.541839 0.4686905,0.612817 0.2506484,-0.396426 0.3189091,0.332944 1.4923405,-0.266755 -0.285669,0.468228 4.6540804,-0.58065 0.488138,-0.104922 4.235367,-0.942742 0.385097,0.440833 0.854201,-0.176453 0.353507,-0.706973 V 16.605817 L 20.5575,14.802576 Z" style="stroke:#000;stroke-width:2;stroke-linejoin:round;stroke-miterlimit:4"/>
 <path d="M 18.697477,13.445771 18.341303,8.5925551 17.725508,8.1994093 18.452171,6.383079 17.2656,6.5428605 17.738325,5.8436327 17.977373,4.2958485 18.303144,4.0186403 17.528492,3.2183443 H 15.999481 L 14.127989,4.3810713 14.620664,2.9942155 13.938106,1.8595273 12.888077,2.093807 12.375713,1.5814437 12.609692,0.99994443 8.2692795,1.8703375 7.5,1.4670808 V 1 L 3.998648,1.014643 4,2 H 3 V 3.5 L 1.56333,4.5004539 H 1 V 5 H 1.7245602 L 2.641724,4.620427 3,5.5 v 9.712991 l -0.5323234,0.539194 1.3613825,0.969867 0.05986,1.541839 0.4686905,0.612817 0.2506484,-0.396426 0.3189091,0.332944 1.4923405,-0.266755 -0.285669,0.468228 4.6540804,-0.58065 0.488138,-0.104922 4.235367,-0.942742 0.385097,0.440833 0.854201,-0.176453 0.353507,-0.706973 V 16.605817 L 20.5575,14.802576 Z" style="fill:#fff"/>
</svg>

<svg width="22" height="20" xml:space="preserve" style="overflow:visible" xmlns="http://www.w3.org/2000/svg">
 <path d="m18.697 13.446-.356-4.853-.615-.394.726-1.816-1.186.16.472-.7.24-1.547.325-.277-.775-.8H16L14.128 4.38l.493-1.387-.683-1.134-1.05.234-.512-.513L12.61 1l-4.34.87-.77-.403V1l-3.501.015L4 2H3v1.5l-1.437 1H1V5h.725l.917-.38L3 5.5v9.713l-.532.54 1.361.97.06 1.54.469.614.25-.397.32.333 1.492-.267-.286.469 4.654-.581.488-.105 4.235-.943.386.441.854-.176.353-.707v-.338l3.454-1.803Z" style="stroke:#000;stroke-width:2;stroke-linejoin:round;stroke-miterlimit:4"/>
 <path d="m18.697 13.446-.356-4.853-.615-.394.726-1.816-1.186.16.472-.7.24-1.547.325-.277-.775-.8H16L14.128 4.38l.493-1.387-.683-1.134-1.05.234-.512-.513L12.61 1l-4.34.87-.77-.403V1l-3.501.015L4 2H3v1.5l-1.437 1H1V5h.725l.917-.38L3 5.5v9.713l-.532.54 1.361.97.06 1.54.469.614.25-.397.32.333 1.492-.267-.286.469 4.654-.581.488-.105 4.235-.943.386.441.854-.176.353-.707v-.338l3.454-1.803Z" style="fill:#fff"/>
</svg>
